style-guide/assets/wds-icons-camera-small.svg

<svg viewBox="0 0 18 18" xmlns="http://www.w3.org/2000/svg">
  <path d="M15 15H3V7h1c.266 0 .52-.105.707-.293L7.414 4h3.172l2.707 2.707A.996.996 0 0 0 14 7h1v8zm1-10h-1.586l-2.707-2.707A.996.996 0 0 0 11 2H7a.996.996 0 0 0-.707.293L3.586 5H2a1 1 0 0 0-1 1v10a1 1 0 0 0 1 1h14a1 1 0 0 0 1-1V6a1 1 0 0 0-1-1zm-7 6a1.001 1.001 0 0 1 0-2 1.001 1.001 0 0 1 0 2m0-4c1.654 0 3 1.346 3 3s-1.346 3-3 3-3-1.346-3-3 1.346-3 3-3zM2 4a1 1 0 1 1 0-2h1a1 1 0 1 1 0 2H2z" fill-rule="evenodd"/>
</svg>

<svg xmlns="http://www.w3.org/2000/svg" xmlns:xlink="http://www.w3.org/1999/xlink" width="18" height="18" viewBox="0 0 18 18">
  <defs>
    <path id="camera-a" d="M15,15 L3,15 L3,7 L4,7 C4.266,7 4.52,6.895 4.707,6.707 L7.414,4 L10.586,4 L13.293,6.707 C13.48,6.895 13.734,7 14,7 L15,7 L15,15 Z M16,5 L14.414,5 L11.707,2.293 C11.52,2.105 11.266,2 11,2 L7,2 C6.734,2 6.48,2.105 6.293,2.293 L3.586,5 L2,5 C1.447,5 1,5.447 1,6 L1,16 C1,16.553 1.447,17 2,17 L16,17 C16.553,17 17,16.553 17,16 L17,6 C17,5.447 16.553,5 16,5 Z M9,11 C8.448,11 8,10.551 8,10 C8,9.449 8.448,9 9,9 C9.552,9 10,9.449 10,10 C10,10.551 9.552,11 9,11 M9,7 C10.654,7 12,8.346 12,10 C12,11.654 10.654,13 9,13 C7.346,13 6,11.654 6,10 C6,8.346 7.346,7 9,7 Z M2,4 C1.447,4 1,3.553 1,3 C1,2.447 1.447,2 2,2 L3,2 C3.553,2 4,2.447 4,3 C4,3.553 3.553,4 3,4 L2,4 Z"/>
  </defs>
  <use fill-rule="evenodd" xlink:href="#camera-a"/>
</svg>
